X:149
T:Sheak of Araby
C:Clarence White
N:TablEdited by Larry Tanner
L:1/8
Q:1/4=240
M:4/4
K:C
z6 D2 | "C6"[A2E2C2] A2 CE C2 | E2 C2 GE D2 | "G9"A2 G,2 FG, FA | [AG,]F A2 zG z2 | 
[A2F2] A2 zD G,2 | d2 dd eg ^de | "C"cA G^D EG D=D | Cc zG zB z2 | "C6"(3CEA d2 CA z2 | 
(3CEA c2 cG z2 | "G9"F/A3/2 G,2 FG, FA | G,F A2 AA zF | zc zF B2 zB | cF Bc B2 D2 | 
"C6"G,[A2E2C2]G, [A2E2C2] G,2 | G,A, B,C D^D EA | zE A2 CA CE | A2 (3CEA BA G2 | 
"G9"A2 G,2 FG, FA | G,F A2 G,G G,F | A2 G,A G,G z2 | d2 df zd ee | "E7"z2 E,2 z[eB^G] z[BG] | 
[e2B2^G2] z[eBG] [eBG][BG] [e2B2G2] | "A7"z[af] z2 [g2e2] [a2f2] | [g7/1e7/1][^fe] | 
"D7"z[^fe] z2 d2 D2 | A4 zG z^G | "G9"A2 G,e z2 Dd | zd de zg ^de | "C"cA G^D EG D=D | 
Cc CG c4 | 


